client/filepreviewer/pdfjs/web/images/secondaryToolbarButton-spreadEven.svg

<svg width="16" height="16" viewBox="0 0 16 16" fill="none" xmlns="http://www.w3.org/2000/svg">
<path fill-rule="evenodd" d="M2 3.5C1.72421 3.5 1.5 3.72421 1.5 4V12.5C1.5 12.7758 1.72421 13 2 13H7.25V3.5H2ZM14 13H8.75V3.5H14C14.2758 3.5 14.5 3.72421 14.5 4V12.5C14.5 12.7758 14.2758 13 14 13ZM0 4C0 2.89579 0.895786 2 2 2H14C15.1042 2 16 2.89579 16 4V12.5C16 13.6042 15.1042 14.5 14 14.5H2C0.895786 14.5 0 13.6042 0 12.5V4ZM10 6.5H11.5V7.5H10V9H11.5V10H10V11.5H12.25C12.6642 11.5 13 11.1642 13 10.75V5.75C13 5.33579 12.6642 5 12.25 5H10V6.5ZM4.5 6.5H3V5H5.25C5.66421 5 6 5.33579 6 5.75V7.75C6 8.03408 5.8395 8.29378 5.58541 8.42082L4.5 8.96353V10H6V11.5H3.75C3.33579 11.5 3 11.1642 3 10.75V8.5C3 8.21592 3.1605 7.95622 3.41459 7.82918L4.5 7.28647V6.5Z" fill="black"/>
</svg>

<svg xmlns="http://www.w3.org/2000/svg" width="16" height="16" fill="none"><path fill="#000" fill-rule="evenodd" d="M2 3.5a.5.5 0 0 0-.5.5v8.5a.5.5 0 0 0 .5.5h5.25V3.5zM14 13H8.75V3.5H14a.5.5 0 0 1 .5.5v8.5a.5.5 0 0 1-.5.5M0 4a2 2 0 0 1 2-2h12a2 2 0 0 1 2 2v8.5a2 2 0 0 1-2 2H2a2 2 0 0 1-2-2zm10 2.5h1.5v1H10V9h1.5v1H10v1.5h2.25a.75.75 0 0 0 .75-.75v-5a.75.75 0 0 0-.75-.75H10zm-5.5 0H3V5h2.25a.75.75 0 0 1 .75.75v2a.75.75 0 0 1-.415.67L4.5 8.965V10H6v1.5H3.75a.75.75 0 0 1-.75-.75V8.5a.75.75 0 0 1 .415-.67L4.5 7.285z"/></svg>
